!!!SOCIAL_FUNCTION:	songs of war
!!!PDT:	1918

Specific Region: Dakotas, Minnesota, Montana, Nebraska
!!!REG: Dakotas and Montana
!!!LING_GROUP: Siouan
!!!LANG: Tone
!!!OTL@ENG: Song of the Strong Heart Society (c)
!!!ONM: No. 118
**kern
*Imale
*clefF4
*k[f#c#g#d#a#]
*M2/4
*MM104
12d#
12c#
12B
12d#
12c#
12B
=1||
*M3/4
4B
4.G#
8d#
=2||
*M2/4
12d#
12c#
12B
12c#
12B
12B
=3||
*M3/4
2.B
=4||
*M2/4
8B
8B
8.B
16d#
=5||
*M3/4
12d#
12c#
12B
4B
8.G#
16B
=6||
*M2/4
8.B
16G#
8.B
16G#
=7
8D#
8D#
12D#
12C#
12BB
=8||
*M3/4
12E
12C#
12BB
4BB
8.GG#
16BB
=9||
*M2/4
8.BB
16BB
8.BB
16D#
=10
12D#
12C#
12BB
8C#
8BB
=11||
*M3/4
4GG#
4.GG#
8GG#
=12
2.GG#
==
*-
!!!CNT: Native American -- Sioux
!!!MRD: 1911/07//-1914///
!!!OCL: Frances Densmore
!!!YOR1: Teton Sioux Music, Bulletin 61,
!!!YOR2: Bureau of American Ethnology, Smithsonian Institution
!!!PPR: Government Printing Office
!!!PPP: Washington, D.C.
!!!PDT: 1918///
!!!ENC: Craig Stuart Sapp
!!!END: 2002/03/25/
!!!EEV: 2002/03/31/
!!!AGN: War Song
!!!MPN@@SIO: Chetang'-hota
!!!MPN@ENG: Gray Hawk
!!!TXO: Teton Sioux
!!!MLC: Standing Rock Reservation, South Dakota, United States of America
!!!ARL: 45.9/-100.7#
!!!catalog: Catalogue No. 548
!!!PPG: 324
!!!EFL: 118/245
!!!VTS: 2475899125
